Tests/CocoaLUTSwiftTests/Resources/TestLinearToBMDFilm.cube
# Resolve test cube (subset of Linear_to_BMDFilm)
LUT_1D_SIZE 16
LUT_1D_INPUT_RANGE -0.0071215555 5.7661304310

0.0000000000 0.0000000000 0.0000000000
0.0070058769 0.0070058769 0.0070058769
0.0140117537 0.0140117537 0.0140117537
0.0210176315 0.0210176315 0.0210176315
0.0280235074 0.0280235074 0.0280235074
0.0350293852 0.0350293852 0.0350293852
0.0420352630 0.0420352630 0.0420352630
0.0490411408 0.0490411408 0.0490411408
0.0560470149 0.0560470149 0.0560470149
0.0630317628 0.0630317628 0.0630317628
0.0698086843 0.0698086843 0.0698086843
0.0763478875 0.0763478875 0.0763478875
0.0826654881 0.0826654881 0.0826654881
0.0887760147 0.0887760147 0.0887760147
0.0946926028 0.0946926028 0.0946926028
0.1004271954 0.1004271954 0.1004271954
